X: 22995
T: Lassie With The Yellow Petticoat, The
R: reel
M: 4/4
K: Gmajor
G2 GB degd|e2 gd edeg|BGGB degd|egdB AG E2:|
gabg af g2|Bdde =fged|gabg af g2|egdB AG E2:|

